ES1T1/13/aimg/a9.svg

<svg clip-rule="evenodd" fill-rule="evenodd" viewBox="0 0 200 200" xmlns="http://www.w3.org/2000/svg"><g transform="matrix(4.16667 0 0 4.16667 -1886.73 -475.873)"><path d="m481.155 154.48v-4.548c-2.11 3.398-4.849 5.098-8.218 5.098-2.154 0-3.853-.682-5.098-2.044s-1.868-3.222-1.868-5.581v-17.051h6.504v15.447c0 2.739.916 4.109 2.747 4.109 2.051 0 4.028-1.458 5.933-4.373v-15.183h6.503v24.126z" fill="none" stroke="#aae1fa" stroke-width="2"/><path d="m.422 0v-.101c-.047.075-.108.113-.183.113-.048 0-.085-.015-.113-.045s-.042-.072-.042-.124v-.379h.145v.343c0 .061.02.091.061.091.046 0 .09-.032.132-.097v-.337h.144v.536z" fill="#fff" fill-rule="nonzero" transform="matrix(45 0 0 45 462.17 154.48)"/></g></svg>

<?xml version="1.0" encoding="UTF-8" standalone="no"?>
<!DOCTYPE svg PUBLIC "-//W3C//DTD SVG 1.1//EN" "http://www.w3.org/Graphics/SVG/1.1/DTD/svg11.dtd">
<svg width="100%" height="100%" viewBox="0 0 200 200" version="1.1" xmlns="http://www.w3.org/2000/svg" xmlns:xlink="http://www.w3.org/1999/xlink" xml:space="preserve" xmlns:serif="http://www.serif.com/" style="fill-rule:evenodd;clip-rule:evenodd;">
    <g transform="matrix(4.16667,0,0,4.16667,-1886.73,-475.873)">
        <path d="M481.155,154.48L481.155,149.932C479.045,153.33 476.306,155.03 472.937,155.03C470.783,155.03 469.084,154.348 467.839,152.986C466.594,151.624 465.971,149.764 465.971,147.405L465.971,130.354L472.475,130.354L472.475,145.801C472.475,148.54 473.391,149.91 475.222,149.91C477.273,149.91 479.25,148.452 481.155,145.537L481.155,130.354L487.658,130.354L487.658,154.48L481.155,154.48Z" style="fill:none;fill-rule:nonzero;stroke:rgb(170,225,250);stroke-width:2px;"/>
        <g transform="matrix(45,0,0,45,462.17,154.48)">
            <path d="M0.422,0L0.422,-0.101C0.375,-0.026 0.314,0.012 0.239,0.012C0.191,0.012 0.154,-0.003 0.126,-0.033C0.098,-0.063 0.084,-0.105 0.084,-0.157L0.084,-0.536L0.229,-0.536L0.229,-0.193C0.229,-0.132 0.249,-0.102 0.29,-0.102C0.336,-0.102 0.38,-0.134 0.422,-0.199L0.422,-0.536L0.566,-0.536L0.566,0L0.422,0Z" style="fill:white;fill-rule:nonzero;"/>
        </g>
    </g>
</svg>
